icons/1_Primary/Tokocrypto.svg

<svg xmlns="http://www.w3.org/2000/svg" viewBox="0 0 1024 1024">
   <circle cx="512" cy="512" r="512" style="fill:#1aa64a"/>
   <path d="M443.27 563.34c-10.64 0-21.26-.07-31.89 0-19 .17 46.1 91.43 93.29 102.19 10.44 2.37 16.15 7.15 16.22 17.86.09 22.5.36 45-.12 67.47-.26 12.83-7.92 18.8-20.06 16.74-90.05-15.24-156.16-63.06-196.71-145.24a257.08 257.08 0 0 1-14.26-36.41c-6.64-21-7.19-21.85-29.81-22.67-27.32-1-45.62-15.18-51.58-40.16-7-29 15-58.87 44.9-60.74a96.35 96.35 0 0 1 12.27-.12c12.8.78 19.87-5.87 23-17.59 7.45-28.76 20.42-55 37.08-79.48 13.73-20.19 21.09-21.13 38.2-4.19 13.05 13 25.94 26.08 39.11 39 8.56 8.33 10.58 16.84 3.07 27.1a103.56 103.56 0 0 0-9.64 17c-5.77 12.18-2.35 17.85 11.1 18 24.14.26 48.29-.07 72.4.15 25.71.29 44.3 15.87 50.36 41.75 4.79 20.55-7.09 45.73-28.95 53.88-12.88 4.84-27.93 4-42 5.38-5.27.5-10.63.07-15.95.07M550.08 256c-64.73-1.13-123 17.55-164.89 49.16-13.39 10.08-14.15 18.28-2.48 30.14q19.75 20.08 39.74 40c12.44 12.36 17.18 13 32.08 4 33.93-20.47 70.54-27.78 109.48-20.69 47.27 8.62 82.74 34.71 108 75.44 16.88 27.16 46.4 33.63 73.14 16.88 24.71-15.51 29.48-41.57 12.16-69.31-50.4-80.86-123.76-121.85-207.23-125.62m3.44 460.61c0 11-.26 22.06 0 33.07.3 13.54 7.07 18.82 20.6 16.87a249.63 249.63 0 0 0 106.19-41.24c35-23.83 63-54.21 82.51-92 6-11.71 7.08-24.22 1.6-36.64-8-18.07-22.84-27.48-41.56-30.33-20.79-3.18-38 4-49.16 22.35-25 41.26-60.3 67.81-107.79 77.86-8 1.69-12.48 7.07-12.42 15.76v34.28Z" style="fill:#fff"/>
</svg>

<svg width="1024" height="1024" viewBox="0 0 1024 1024" fill="none" xmlns="http://www.w3.org/2000/svg">
<g clip-path="url(#clip0_2_3672)">
<path d="M512 1024C794.77 1024 1024 794.77 1024 512C1024 229.23 794.77 0 512 0C229.23 0 0 229.23 0 512C0 794.77 229.23 1024 512 1024Z" fill="#98DC9A"/>
<path d="M443.27 563.34C432.63 563.34 422.01 563.27 411.38 563.34C392.38 563.51 457.48 654.77 504.67 665.53C515.11 667.9 520.82 672.68 520.89 683.39C520.98 705.89 521.25 728.39 520.77 750.86C520.51 763.69 512.85 769.66 500.71 767.6C410.66 752.36 344.55 704.54 304 622.36C298.329 610.603 293.562 598.431 289.74 585.95C283.1 564.95 282.55 564.1 259.93 563.28C232.61 562.28 214.31 548.1 208.35 523.12C201.35 494.12 223.35 464.25 253.25 462.38C257.333 462.079 261.432 462.039 265.52 462.26C278.32 463.04 285.39 456.39 288.52 444.67C295.97 415.91 308.94 389.67 325.6 365.19C339.33 345 346.69 344.06 363.8 361C376.85 374 389.74 387.08 402.91 400C411.47 408.33 413.49 416.84 405.98 427.1C402.238 432.45 399.01 438.142 396.34 444.1C390.57 456.28 393.99 461.95 407.44 462.1C431.58 462.36 455.73 462.03 479.84 462.25C505.55 462.54 524.14 478.12 530.2 504C534.99 524.55 523.11 549.73 501.25 557.88C488.37 562.72 473.32 561.88 459.25 563.26C453.98 563.76 448.62 563.33 443.3 563.33M550.08 256C485.35 254.87 427.08 273.55 385.19 305.16C371.8 315.24 371.04 323.44 382.71 335.3C395.877 348.686 409.123 362.02 422.45 375.3C434.89 387.66 439.63 388.3 454.53 379.3C488.46 358.83 525.07 351.52 564.01 358.61C611.28 367.23 646.75 393.32 672.01 434.05C688.89 461.21 718.41 467.68 745.15 450.93C769.86 435.42 774.63 409.36 757.31 381.62C706.91 300.76 633.55 259.77 550.08 256ZM553.52 716.61C553.52 727.61 553.26 738.67 553.52 749.68C553.82 763.22 560.59 768.5 574.12 766.55C612.222 761.171 648.565 747.057 680.31 725.31C715.31 701.48 743.31 671.1 762.82 633.31C768.82 621.6 769.9 609.09 764.42 596.67C756.42 578.6 741.58 569.19 722.86 566.34C702.07 563.16 684.86 570.34 673.7 588.69C648.7 629.95 613.4 656.5 565.91 666.55C557.91 668.24 553.43 673.62 553.49 682.31V716.59L553.52 716.61Z" fill="white"/>
</g>
<defs>
<clipPath id="clip0_2_3672">
<rect width="1024" height="1024" fill="white"/>
</clipPath>
</defs>
</svg>
